X:1
T:Cembalo Sonata A Major
T:Keyboard Sonata A Major
T:K. 323
T:Domenico Scarlatti (1685-1757)
C:Domenico Scarlatti (1685-1757)
%%score { 1 | 2 }
L:1/8
Q:1/4=158
M:6/8
K:A
V:1 treble nm="Cembalo" snm="Cbl."
V:2 bass 
V:1
"^Allegro" eca eca | e2 a dcB | c2 a BAG | A2 a dcB | c2 a BAG | !breath!A3 [Ac]3 | [Ac]3 [Ac]3 | %7
 [Ac]3 [Bd]3 | ec!breath!A [Ac]3 | [Ac]3 [Ac]3 | [Ac]3 [Bd]3 | eca ^dBa | gf!breath!e [eg]3 | %13
 [eg]3 [eg]3 | [eg]3 [fa]3 | bg!breath!e [eg]3 | [eg]3 [eg]3 | [eg]3 [fa]3 | bge Bgb | bag gfe | %20
 !breath!^dBd ec^A- | AB^d ec^A- | AB^d ec^a | bf^d egB | cag fe^d | !breath!ec^d ec^A- | %26
 AB^d ec^A- | AB^d ec^a | bf^d egB | cag fe^d | eBG EGB | cAa fe^d | !breath!e3 :: [GB]3 | %34
 [GB]3 [^Ac]3 | dB!breath!d [df]3 | [cf]3 [Bg]3 | afc Acf | aec Ace | afd Adf | aec Ace | %41
 af^d Bdf | agf fe^d | e3 =d3 | c3 B3 | ec!breath!A af^d- | deg af^d- | deg af^d | ebg aec | %49
 dfd- dcB | Ac!breath!e af^d- | deg af^d- | deg af^d | ebg aec | dfd- dcB | !breath!Aed- dcB | %56
 !breath!ced- dc!breath!B | aec Ace | fdB- BAG | !breath!Aed- dcB | !breath!ced- dc!breath!B | %61
 c'ae cAe | %62
[Q:1/4=158] f[Q:1/4=157]"^.9"d[Q:1/4=157]"^.3"B-[Q:1/4=156]"^.1" B[Q:1/4=154]"^.2"A[Q:1/4=151]"^.6"G | %63
[Q:1/4=148] A3 :| %64
V:2
 A,3 A,3 | A,B,C D2 E | A,B,C D2 E | A,B,C D2 E | A,B,C D2 E | A,3 A,CA, | G,B,G, F,A,F, | %7
 E,G,E, D,F,D, | C,3 A,CA, | G,B,G, F,A,F, | E,G,E, D,F,D, | C,3 B,,3 | E,3 EGE | ^DFD CEC | %14
 B,^DB, A,CA, | G,3 EGE | ^DFD CEC | B,^DB, A,CA, | G,3 G,3 | A,3 ^A,3 | B,3 C3 | B,3 C3 | B,3 C3 | %23
 B,3 G,3 | A,3 B,3 | E,3 C3 | B,3 C3 | B,3 C3 | B,3 G,3 | A,3 B,3 | E,3 G,,3 | A,,3 B,,3 | E,,3 :: %33
 E,G,E, | D,F,D, C,E,C, | B,,3 B,DB, | A,CA, G,B,G, | F,3 F,3 | E,3 E,3 | D,3 D,3 | C,3 C,3 | %41
 B,,3 B,3 | A,3 A,3 | G,B,G, F,A,F, | E,G,E, D,F,D, | C,3 F,3 | E,3 F,3 | E,3 F,3 | E,3 C,3 | %49
 D,3 E,3 | A,,3 F,3 | E,3 F,3 | E,3 F,3 | E,3 C,3 | D,3 E,3 | A,,3 E,3 | A,3 E,3 | A,,3 C,3 | %58
 D,3 E,3 | A,,3 E,3 | A,3 E,3 | C,3 C,3 | D,3 E,3 | A,,3 :| %64

